blockchains/ethereum/assets/0xA15C7Ebe1f07CaF6bFF097D8a589fb8AC49Ae5B3/logo.svg

<svg fill="none" height="250" viewBox="0 0 250 250" width="250" xmlns="http://www.w3.org/2000/svg" xmlns:xlink="http://www.w3.org/1999/xlink"><clipPath id="a"><path d="m0 0h250v250h-250z"/></clipPath><g clip-path="url(#a)"><path d="m125 250c69.036 0 125-55.964 125-125 0-69.0356-55.964-125-125-125-69.0356 0-125 55.9644-125 125 0 69.036 55.9644 125 125 125z" fill="#181818"/><path d="m130.701 109.999 49.7-49.7998 10.1 10.2-49.7 49.6998zm-71.3011 71.2 49.8001-49.8 10.1 10.2-49.7 49.7zm71.3011-39.6 10.1-10.2 49.8 49.8-10.2 10.1zm-71.3011-71.1998 10.2001-10.2 49.7 49.6998-10.1 10.2zm55.4001 55.2998 10.201-10.2 10.2 10.2-10.2 10.2z" fill="#f6d30c"/></g></svg>

<svg width="250" height="250" viewBox="0 0 250 250" fill="none" xmlns="http://www.w3.org/2000/svg">
<g clip-path="url(#clip0_30_677)">
<path d="M125 250C194.036 250 250 194.036 250 125C250 55.9644 194.036 0 125 0C55.9644 0 0 55.9644 0 125C0 194.036 55.9644 250 125 250Z" fill="#181818"/>
<path d="M130.701 109.999L180.401 60.1992L190.501 70.3992L140.801 120.099L130.701 109.999ZM59.3999 181.199L109.2 131.399L119.3 141.599L69.6 191.299L59.3999 181.199ZM130.701 141.599L140.801 131.399L190.601 181.199L180.401 191.299L130.701 141.599ZM59.3999 70.3992L69.6 60.1992L119.3 109.899L109.2 120.099L59.3999 70.3992ZM114.8 125.699L125.001 115.499L135.201 125.699L125.001 135.899L114.8 125.699Z" fill="#F6D30C"/>
</g>
<defs>
<clipPath id="clip0_30_677">
<rect width="250" height="250" fill="white"/>
</clipPath>
</defs>
</svg>
